public/brave_talk_icon.svg

<svg width="256" height="256" viewBox="0 0 256 256" fill="none" xmlns="http://www.w3.org/2000/svg">
<g clip-path="url(#clip0_2081_42274)">
<path fill-rule="evenodd" clip-rule="evenodd" d="M232.128 204.204C230.683 205.005 229.102 205.385 227.52 205.385C225.627 205.385 223.743 204.824 222.102 203.713L178.709 174.138V185.428C178.709 196.437 169.953 205.385 159.185 205.385H22.5139C11.7462 205.385 2.9895 196.437 2.9895 185.428V55.6957C2.9895 44.6963 11.7462 35.7385 22.5139 35.7385H159.185C169.953 35.7385 178.709 44.6963 178.709 55.6957V66.9955L222.102 37.42C225.09 35.3782 228.956 35.178 232.128 36.9195C235.301 38.661 237.283 42.044 237.283 45.7171V195.406C237.283 199.089 235.301 202.462 232.128 204.204ZM217.758 64.3731L174.365 93.9387C174.111 94.1088 173.819 94.1288 173.555 94.2789C172.969 94.6092 172.364 94.8494 171.7 95.0496C171.075 95.2398 170.48 95.3699 169.845 95.4299C169.533 95.46 169.26 95.6201 168.947 95.6201C168.615 95.6201 168.332 95.46 168 95.4199C167.346 95.3599 166.741 95.2298 166.116 95.0296C165.501 94.8394 164.935 94.6092 164.388 94.309C163.851 94.0187 163.373 93.6784 162.895 93.2881C162.367 92.8477 161.909 92.3773 161.479 91.8368C161.284 91.5866 161.001 91.4465 160.825 91.1763C160.659 90.916 160.63 90.6058 160.493 90.3355C160.171 89.745 159.946 89.1445 159.751 88.4839C159.556 87.8234 159.419 87.1928 159.361 86.5323C159.331 86.222 159.185 85.9518 159.185 85.6415V55.6957H22.5139V185.808H159.185V155.492C159.185 155.181 159.331 154.911 159.361 154.601C159.419 153.93 159.556 153.3 159.751 152.649C159.946 151.989 160.171 151.388 160.493 150.788C160.63 150.517 160.659 150.217 160.825 149.957C161.001 149.687 161.284 149.537 161.489 149.286C161.909 148.756 162.358 148.296 162.885 147.855C163.373 147.455 163.861 147.105 164.418 146.804C164.945 146.514 165.482 146.294 166.067 146.104C166.721 145.893 167.366 145.763 168.049 145.703C168.361 145.663 168.625 145.513 168.947 145.513C169.25 145.513 169.504 145.663 169.796 145.693C170.46 145.753 171.085 145.883 171.729 146.084C172.374 146.284 172.969 146.524 173.545 146.854C173.809 146.994 174.111 147.014 174.365 147.195L217.758 176.76V64.3731Z" fill="url(#paint0_linear_2081_42274)"/>
</g>
<defs>
<linearGradient id="paint0_linear_2081_42274" x1="2.9895" y1="35.7385" x2="219.044" y2="226.086" gradientUnits="userSpaceOnUse">
<stop stop-color="#4C54D2"/>
<stop offset="0.5625" stop-color="#BF14A2"/>
<stop offset="1" stop-color="#F73A1C"/>
</linearGradient>
<clipPath id="clip0_2081_42274">
<rect width="256" height="256" fill="white"/>
</clipPath>
</defs>
</svg>

<svg xmlns="http://www.w3.org/2000/svg" width="256" height="256" fill="none">
  <g clip-path="url(#a)">
    <path fill="url(#b)" fill-rule="evenodd" d="M232.128 204.204a9.464 9.464 0 0 1-4.608 1.181 9.646 9.646 0 0 1-5.418-1.672l-43.393-29.575v11.29c0 11.009-8.756 19.957-19.524 19.957H22.514c-10.768 0-19.524-8.948-19.524-19.957V55.696c0-11 8.756-19.957 19.524-19.957h136.671c10.768 0 19.524 8.957 19.524 19.957v11.3l43.393-29.576a9.578 9.578 0 0 1 10.026-.5c3.173 1.741 5.155 5.124 5.155 8.797v149.689c0 3.683-1.982 7.056-5.155 8.798Zm-14.37-139.83-43.393 29.565c-.254.17-.546.19-.81.34a8.99 8.99 0 0 1-1.855.77 9.25 9.25 0 0 1-1.855.38c-.312.031-.585.191-.898.191-.332 0-.615-.16-.947-.2a8.646 8.646 0 0 1-1.884-.39 9.173 9.173 0 0 1-1.728-.721 9.434 9.434 0 0 1-1.493-1.02 9.812 9.812 0 0 1-1.416-1.452c-.195-.25-.478-.39-.654-.66-.166-.261-.195-.571-.332-.842-.322-.59-.547-1.19-.742-1.851a9.852 9.852 0 0 1-.39-1.952c-.03-.31-.176-.58-.176-.89V55.695H22.514v130.112h136.671v-30.316c0-.311.146-.581.176-.891a9.579 9.579 0 0 1 .39-1.952 9.57 9.57 0 0 1 .742-1.861c.137-.271.166-.571.332-.831.176-.27.459-.42.664-.671.42-.53.869-.99 1.396-1.431.488-.4.976-.75 1.533-1.051a9.346 9.346 0 0 1 1.649-.7 8.894 8.894 0 0 1 1.982-.401c.312-.04.576-.19.898-.19.303 0 .557.15.849.18.664.06 1.289.19 1.933.391.645.2 1.24.44 1.816.77.264.14.566.16.82.341l43.393 29.565V64.373Z" clip-rule="evenodd"/>
  </g>
  <defs>
    <linearGradient id="b" x1="2.99" x2="219.044" y1="35.739" y2="226.086" gradientUnits="userSpaceOnUse">
      <stop stop-color="#4C54D2"/>
      <stop offset=".563" stop-color="#BF14A2"/>
      <stop offset="1" stop-color="#F73A1C"/>
    </linearGradient>
    <clipPath id="a">
      <path fill="#fff" d="M0 0h256v256H0z"/>
    </clipPath>
  </defs>
</svg>
